elementary-xfce/actions/16/tab-new.svg

<?xml version="1.0" encoding="UTF-8" standalone="no"?>
<svg
   xmlns:dc="http://purl.org/dc/elements/1.1/"
   xmlns:cc="http://creativecommons.org/ns#"
   xmlns:rdf="http://www.w3.org/1999/02/22-rdf-syntax-ns#"
   xmlns:svg="http://www.w3.org/2000/svg"
   xmlns="http://www.w3.org/2000/svg"
   xmlns:xlink="http://www.w3.org/1999/xlink"
   width="16"
   height="16"
   id="svg3309"
   version="1.0">
  <defs
     id="defs3311">
    <linearGradient
       id="linearGradient259">
      <stop
         id="stop260"
         offset="0.0000000"
         style="stop-color:#fafafa;stop-opacity:1.0000000;" />
      <stop
         id="stop261"
         offset="1.0000000"
         style="stop-color:#bbbbbb;stop-opacity:1.0000000;" />
    </linearGradient>
    <linearGradient
       xlink:href="#linearGradient259"
       id="linearGradient4994"
       gradientUnits="userSpaceOnUse"
       gradientTransform="matrix(0.333565,0,0,0.3316643,-0.01077079,-1.5974019)"
       x1="20.908833"
       y1="42.125"
       x2="20.908833"
       y2="17.249201" />
    <linearGradient
       id="linearGradient2200">
      <stop
         style="stop-color:#ffffff;stop-opacity:1;"
         offset="0"
         id="stop2202" />
      <stop
         style="stop-color:#ffffff;stop-opacity:0;"
         offset="1"
         id="stop2204" />
    </linearGradient>
    <linearGradient
       xlink:href="#linearGradient2200"
       id="linearGradient4990"
       gradientUnits="userSpaceOnUse"
       gradientTransform="matrix(0.3186537,0,0,0.2560395,0.3434312,1.1474938)"
       x1="26.538"
       y1="22.765282"
       x2="29.267735"
       y2="45.015282" />
    <radialGradient
       gradientTransform="matrix(0,0.38528829,-0.41958841,0,32.389496,-16.793007)"
       gradientUnits="userSpaceOnUse"
       xlink:href="#linearGradient3242-7-3-8-0-4-58-06"
       id="radialGradient3259"
       fy="48.605404"
       fx="64.575233"
       r="31.000002"
       cy="48.605404"
       cx="64.575233" />
    <linearGradient
       id="linearGradient3242-7-3-8-0-4-58-06">
      <stop
         offset="0"
         style="stop-color:#cdf87e;stop-opacity:1"
         id="stop3244-5-8-5-6-4-3-8" />
      <stop
         offset="0.26238"
         style="stop-color:#a2e34f;stop-opacity:1"
         id="stop3246-9-5-1-5-3-0-7" />
      <stop
         offset="0.66093999"
         style="stop-color:#68b723;stop-opacity:1"
         id="stop3248-7-2-0-7-5-35-9" />
      <stop
         offset="1"
         style="stop-color:#1d7e0d;stop-opacity:1"
         id="stop3250-8-2-8-5-6-40-4" />
    </linearGradient>
  </defs>
  <metadata
     id="metadata3314">
    <rdf:RDF>
      <cc:Work
         rdf:about="">
        <dc:format>image/svg+xml</dc:format>
        <dc:type
           rdf:resource="http://purl.org/dc/dcmitype/StillImage" />
      </cc:Work>
    </rdf:RDF>
  </metadata>
  <path
     id="rect1316"
     d="m 2.6852661,3.5615641 c -0.6405781,0 -1.165181,0.530365 -1.165181,1.174166 V 9.5195006 H 0.6772069 c -0.10089087,0 -0.17720641,0.086185 -0.17720641,0.186561 V 12.5 c 0,0.100377 0.0763155,0 0.17720641,0 H 15.31237 c 0.10089,0 0.187629,0.100378 0.18763,0 V 9.7060616 c 0,-0.100377 -0.08674,-0.186561 -0.18763,-0.186561 h -0.815799 l 0.0028,-4.7331805 c 0,-0.935177 -0.399925,-1.282051 -1.304348,-1.282051 z"
     style="fill:url(#linearGradient4994);fill-opacity:1;fill-rule:evenodd;stroke:#888a85;stroke-width:1.00000012;stroke-linecap:butt;stroke-linejoin:round;stroke-miterlimit:4;stroke-dasharray:none;stroke-dashoffset:0;stroke-opacity:1" />
  <path
     id="path1331"
     d="m 3,4.5316676 c -0.3434004,0 -0.4881656,0.0189 -0.4881656,0.4218745 L 2.5877722,10.5 H 1.5 v 1 h 13 v -1 H 13.500298 V 5.2419471 C 13.500298,4.7015782 13.478917,4.5396379 13,4.5392736 Z"
     style="opacity:0.4;fill:none;fill-opacity:1;fill-rule:evenodd;stroke:url(#linearGradient4990);stroke-width:1;stroke-linecap:round;stroke-linejoin:miter;stroke-miterlimit:4;stroke-dasharray:none;stroke-dashoffset:0;stroke-opacity:1" />
  <g
     transform="translate(-0.007286,-0.007286)"
     id="g856">
    <path
       style="color:#000000;display:inline;overflow:visible;visibility:visible;fill:url(#radialGradient3259);fill-opacity:1;fill-rule:nonzero;stroke:none;stroke-width:0.98542738;stroke-linecap:round;stroke-linejoin:round;stroke-miterlimit:4;stroke-dasharray:none;stroke-dashoffset:0;stroke-opacity:1;marker:none;enable-background:accumulate"
       id="path2262"
       d="M 10.5,10.5 V 8.4927137 h 3 V 10.5 h 2.007286 v 3 H 13.5 v 2.007286 h -3 V 13.5 H 8.4927137 v -3 z" />
    <path
       style="color:#000000;clip-rule:nonzero;display:inline;overflow:visible;visibility:visible;opacity:0.5;isolation:auto;mix-blend-mode:normal;color-interpolation:sRGB;color-interpolation-filters:linearRGB;solid-color:#000000;solid-opacity:1;fill:none;fill-opacity:1;fill-rule:nonzero;stroke:#0f5a00;stroke-width:1;stroke-linecap:round;stroke-linejoin:round;stroke-miterlimit:4;stroke-dasharray:none;stroke-dashoffset:0;stroke-opacity:1;marker:none;color-rendering:auto;image-rendering:auto;shape-rendering:auto;text-rendering:auto;enable-background:accumulate"
       id="path2262-5"
       d="M 10.5,10.5 V 8.4927137 h 3 V 10.5 h 2.007286 v 3 H 13.5 v 2.007286 h -3 V 13.5 H 8.4927137 v -3 z" />
    <rect
       style="color:#000000;clip-rule:nonzero;display:inline;overflow:visible;visibility:visible;opacity:0.5;isolation:auto;mix-blend-mode:normal;color-interpolation:sRGB;color-interpolation-filters:linearRGB;solid-color:#000000;solid-opacity:1;fill:#ffffff;fill-opacity:1;fill-rule:nonzero;stroke:none;stroke-width:1;stroke-linecap:round;stroke-linejoin:round;stroke-miterlimit:4;stroke-dasharray:none;stroke-dashoffset:0;stroke-opacity:1;marker:none;color-rendering:auto;image-rendering:auto;shape-rendering:auto;text-rendering:auto;enable-background:accumulate"
       id="rect4304"
       width="2"
       height="1"
       x="11"
       y="9" />
    <rect
       style="color:#000000;clip-rule:nonzero;display:inline;overflow:visible;visibility:visible;opacity:0.2;isolation:auto;mix-blend-mode:normal;color-interpolation:sRGB;color-interpolation-filters:linearRGB;solid-color:#000000;solid-opacity:1;fill:#ffffff;fill-opacity:1;fill-rule:nonzero;stroke:none;stroke-width:1;stroke-linecap:round;stroke-linejoin:round;stroke-miterlimit:4;stroke-dasharray:none;stroke-dashoffset:0;stroke-opacity:1;marker:none;color-rendering:auto;image-rendering:auto;shape-rendering:auto;text-rendering:auto;enable-background:accumulate"
       id="rect4304-6"
       width="2"
       height="1"
       x="11"
       y="14" />
    <path
       id="rect4304-6-2"
       d="m 9,11 v 1 h 2 v -1 z m 4,0 v 1 h 2 v -1 z"
       style="color:#000000;clip-rule:nonzero;display:inline;overflow:visible;visibility:visible;opacity:0.4;isolation:auto;mix-blend-mode:normal;color-interpolation:sRGB;color-interpolation-filters:linearRGB;solid-color:#000000;solid-opacity:1;fill:#ffffff;fill-opacity:1;fill-rule:nonzero;stroke:none;stroke-width:1;stroke-linecap:round;stroke-linejoin:round;stroke-miterlimit:4;stroke-dasharray:none;stroke-dashoffset:0;stroke-opacity:1;marker:none;color-rendering:auto;image-rendering:auto;shape-rendering:auto;text-rendering:auto;enable-background:accumulate" />
  </g>
</svg>

<?xml version="1.0" encoding="UTF-8" standalone="no"?>
<svg
   xmlns:dc="http://purl.org/dc/elements/1.1/"
   xmlns:cc="http://creativecommons.org/ns#"
   xmlns:rdf="http://www.w3.org/1999/02/22-rdf-syntax-ns#"
   xmlns:svg="http://www.w3.org/2000/svg"
   xmlns="http://www.w3.org/2000/svg"
   xmlns:xlink="http://www.w3.org/1999/xlink"
   width="16"
   height="16"
   id="svg3309"
   version="1.0">
  <defs
     id="defs3311">
    <linearGradient
       id="linearGradient259">
      <stop
         id="stop260"
         offset="0.0000000"
         style="stop-color:#fafafa;stop-opacity:1.0000000;" />
      <stop
         id="stop261"
         offset="1.0000000"
         style="stop-color:#bbbbbb;stop-opacity:1.0000000;" />
    </linearGradient>
    <linearGradient
       xlink:href="#linearGradient259"
       id="linearGradient4994"
       gradientUnits="userSpaceOnUse"
       gradientTransform="matrix(0.333565,0,0,0.3316643,-1.0770791e-2,-1.5974019)"
       x1="20.908833"
       y1="42.125"
       x2="20.908833"
       y2="17.249201" />
    <linearGradient
       id="linearGradient2200">
      <stop
         style="stop-color:#ffffff;stop-opacity:1;"
         offset="0"
         id="stop2202" />
      <stop
         style="stop-color:#ffffff;stop-opacity:0;"
         offset="1"
         id="stop2204" />
    </linearGradient>
    <linearGradient
       xlink:href="#linearGradient2200"
       id="linearGradient4990"
       gradientUnits="userSpaceOnUse"
       gradientTransform="matrix(0.3186537,0,0,0.2560395,0.3434312,1.1474938)"
       x1="26.538"
       y1="22.765282"
       x2="29.267735"
       y2="45.015282" />
    <linearGradient
       id="linearGradient3945">
      <stop
         id="stop3947"
         offset="0"
         style="stop-color:#ecf5b6;stop-opacity:1;" />
      <stop
         id="stop3949"
         offset="1"
         style="stop-color:#9fba48;stop-opacity:1;" />
    </linearGradient>
    <linearGradient
       xlink:href="#linearGradient3945"
       id="linearGradient8046"
       gradientUnits="userSpaceOnUse"
       gradientTransform="matrix(0.3280315,0,0,0.3257096,4.4449582,4.5320242)"
       x1="24.103895"
       y1="15.168831"
       x2="24.103895"
       y2="32.485161" />
  </defs>
  <metadata
     id="metadata3314">
    <rdf:RDF>
      <cc:Work
         rdf:about="">
        <dc:format>image/svg+xml</dc:format>
        <dc:type
           rdf:resource="http://purl.org/dc/dcmitype/StillImage" />
      </cc:Work>
    </rdf:RDF>
  </metadata>
  <g
     id="layer1">
    <path
       style="fill:url(#linearGradient4994);fill-opacity:1;fill-rule:evenodd;stroke:#888a85;stroke-width:1.00000011999999994;stroke-linecap:butt;stroke-linejoin:round;stroke-miterlimit:4;stroke-dasharray:none;stroke-dashoffset:0;stroke-opacity:1"
       d="M 2.6852661,3.5615641 C 2.044688,3.5615641 1.5200851,4.0919291 1.5200851,4.7357301 L 1.5200851,9.5195006 L 0.6772069,9.5195006 C 0.57631603,9.5195006 0.50000049,9.6056856 0.50000049,9.7060616 L 0.50000049,12.5 C 0.50000049,12.600377 0.57631603,12.5 0.6772069,12.5 L 15.31237,12.5 C 15.41326,12.5 15.499999,12.600378 15.5,12.5 L 15.5,9.7060616 C 15.5,9.6056846 15.413261,9.5195006 15.31237,9.5195006 L 14.496571,9.5195006 L 14.499404,4.7863201 C 14.499404,3.8511431 14.099479,3.5042691 13.195056,3.5042691 L 2.6852661,3.5615641 z"
       id="rect1316" />
    <path
       style="opacity:0.40000000000000002;fill:none;fill-opacity:1;fill-rule:evenodd;stroke:url(#linearGradient4990);stroke-width:1;stroke-linecap:round;stroke-linejoin:miter;stroke-miterlimit:4;stroke-dasharray:none;stroke-dashoffset:0;stroke-opacity:1"
       d="M 3,4.5316676 C 2.6565996,4.5316676 2.5118344,4.5505671 2.5118344,4.9535421 L 2.5877722,10.5 L 1.5,10.5 L 1.5,11.5 L 14.5,11.5 L 14.5,10.5 L 13.500298,10.5 L 13.500298,5.2419471 C 13.500298,4.7015782 13.478917,4.5396379 13,4.5392736 L 3,4.5316676 z"
       id="path1331" />
    <path
       style="fill:url(#linearGradient8046);fill-opacity:1;fill-rule:evenodd;stroke:#699536;stroke-width:1.01506352000000000;stroke-linecap:butt;stroke-linejoin:round;stroke-miterlimit:4;stroke-dasharray:none;stroke-opacity:1;display:inline"
       d="M 10.499998,10.5 L 10.499998,8.5075322 L 13.499998,8.5075322 L 13.499998,10.5 L 15.492468,10.5 L 15.492468,13.5 L 13.499998,13.5 L 13.499998,15.492468 L 10.499998,15.492468 L 10.499998,13.5 L 8.5075282,13.5 L 8.5075282,10.5 L 10.499998,10.5 z"
       id="path2262" />
  </g>
</svg>
